X: 37923
T: Southwest Wind, The
R: jig
M: 6/8
K: Ddorian
|:Ac/A/A AdB|cAG EFD|DGG DE/F/G|AGE cAG|
A2G AdB|cAG EFD|DE/F/G AGE|FDD DE/F/G|
A3 A2d|cAG EFD|DGG GFG|DGG cAG|
Ac/A/A AdB|cAG EFD|D3 AGE|FDD D2e||
|:fdd edd|fdd d2e|fdd e2d|=cAG Ade|
fdd efd|cAB c2d|cAG E/F/GE|FDD D2e:|2 FDD D3||

